!!!!SEGMENT: pl-sa--549-a-ix-29--038_anonim--polonez-kolsciuszki.krn
!!!cenid: 18xx:492
!!!COM: Anonim
!!!COM-rismID: pe30004985
!!!CDT:
!!!CNT:
!!!OTL: Polonez Kościuszki
!!!PDT:
!!!AGN: Secular; Polonaise
!!!SMS-siglum: PL-SA
!!!SMS-shelfmark: 549/A IX 29
!!!SMS-shelfwork: 038 W
!!!SMS-variant:
!!!SMS-altvar:
!!!NIFC-rismSourceID: 1001068931
!!!NIFC-rismChildID: 1001068931
!!!NIFC-islandoraID: none
!!!URL-pdf-islandora:
!!!URL-scan: https://bc.bdsandomierz.pl/dlibra/publication/1441/edition/1409/content @EN{Scan in the Sandomierz Diocese Digital Library} @PL{Skany w portalu Cyfrowa Biblioteka Diecezjalna w Sandomierzu}
!!!IIIF:
!!!ONB-nifc: Str. 28 (s. 4) – str. 29 (s. 1)
!!!AIN: 2 piano
!!!key: C
**kern	**kern	**dynam
*part2	*part1	*part1
*staff2	*staff1	*
*I"[piano]	*I"[piano]	*
*Ipiano	*Ipiano	*
*ICklav	*ICklav	*
*>[A,B,C,D,D,E,E,B]	*[A,B,C,D,D,E,E,B]	*
*clefF4	*clefG2	*
*k[]	*k[]	*
*C:	*C:	*
*M3/4	*M3/4	*
!	!LO:TX:t=P:problem=metrum z kreską ułamkową	!
!	!LO:TX:t=P:problem=metrum z kreską ułamkową	!
*>A	*>A	*
*	*Xtuplet	*
16ryy	48cc\LLL	.
.	48ee\	f
.	48gg\JJJ	.
=1-	=1-	=1-
8c\L 8C\	8ccc\L 8ee\ 8cc\	.
!LO:N:vis=8	!	!
16C\L	16cc\L	.
!LO:N:vis=8	!	!
16E\JJ	16ee\JJ	.
8G\L	8gg\L	.
8G\	8gg\	.
8E\	8ee\	.
8C\J	8cc\J	.
=2	=2	=2
8A\L	8aa\L	.
8F\	8ff\	.
8D\	8dd\	.
8BB\J	8b\J	.
!	!LO:TX:t=[segno]	!
!	!LO:TX:t=P:problem=znak segno na kresce taktowej	!
4C\	4cc\	.
=3||	=3||	=3||
*>B	*>B	*
!	!	!LO:DY:t=p&colon;
8C\L	8cc\L	p
8G\	8ee\J	.
8E\	4.ee\ 4.cc\	.
8G\	.	.
8C\	.	.
8G\J	8gg\ 8ee\	.
=4	=4	=4
8D\L 8BB\	8gg\L 8ee\	.
8G\J	8ff#X\J 8dd#X\	.
*rep	*	*
8D\L 8BB\	4.ffn\ 4.ddn\	.
8G\J	.	.
*Xrep	*	*
*rep	*	*
8D\L 8BB\	.	.
8G\J	8ee\ 8cc\	.
*Xrep	*	*
=5	=5	=5
8GG\L	8dd\L 8b\	.
8G\J 8D\	8dd\J 8b\	.
*rep	*	*
8GG\L	4dd\ 4b\	.
8G\J 8D\	.	.
*Xrep	*	*
*rep	*	*
!	!LO:N:vis=16	!
8GG\L	8ee\L	.
!	!LO:N:vis=16	!
8G\J 8D\	8ff\J	.
*Xrep	*	*
=6	=6	=6
8C\L	8gg\L 8ee\	.
8G\J	8aa\ 8ff\	.
4C\	8gg\ 8ee\	.
.	8ff\ 8dd\	.
4r	8ee\ 8cc\	.
.	8dd\J 8b\	.
=7	=7	=7
16C\LL	8cc\	f
16G\	.	.
16E\	4ee\	.
16G\JJ	.	.
*rep	*	*
16C\LL	.	.
16G\	.	.
16E\	16dd\LL	.
16G\JJ	16ee\JJ	.
*Xrep	*	*
*rep	*	*
16C\LL	16ee\LL	.
16G\	16ee\	.
16E\	16dd\	.
16G\JJ	16ee\JJ	.
*Xrep	*	*
=8	=8	=8
16BB\LL	8.gg\L	.
16G\	.	.
16D\	.	.
16G\JJ	16ff#X\Jk	.
*rep	*	*
16BB\LL	16ffn\LL	.
16G\	16ee\	.
16D\	16ff\	.
16G\JJ	16gg\JJ	.
*Xrep	*	*
!!LO:LB:g=original
16BB\LL	16ff\LL	.
16G\	16ee\	.
16D\	16dd\	.
16G\JJ	16cc\JJ	.
=9	=9	=9
16GG\LL	8cc\	.
16G\	.	.
16D\	4dd\	.
16G\JJ	.	.
*rep	*	*
16GG\LL	.	.
16G\	.	.
16D\	4ff\	.
16G\JJ	.	.
*Xrep	*	*
*rep	*	*
16GG\LL	.	.
16G\	.	.
16D\	8aa\	.
16G\JJ	.	.
*Xrep	*	*
=10	=10	=10
!LO:TX:t=P:problem=mixed beam	!	!
8GG/L	16gg\LL	.
.	16ee\	.
8f\J 8d\ 8G\	16ff\	.
.	16dd\JJ	.
4f\ 4d\ 4B\ 4G\	4dd\	.
8e\ 8c\	8dd\	.
!	!LO:TX:t=[segno]	!
!	!LO:TX:t=P:problem=znak segno na kresce taktowej	!
!	!LO:TX:a:t=Fine	!
8ryy	8ryy	.
=11||	=11||	=11||
*>C	*>C	*
*tremolo	*	*
!LO:TX:t=P:problem=mixed beam	!	!
8GG/L	8.dd\L 8.b\	.
8G\	.	.
.	16dd\Jk 16b\	.
8GG/	4.dd\ 4.b\	.
8G\	.	.
8GG/	.	.
8G\J	8ee\ 8cc\	.
*Xtremolo	*	*
=12	=12	=12
!LO:TX:t=P:problem=mixed beam	!	!
8GG/L	8gg\L 8ee\	.
8d\J 8B\ 8G\	8ff#X\J 8dd#X\	.
4d\ 4B\ 4G\	8ffn\L 8ddn\	.
.	16bb\L	.
.	16ccc\JJ	.
4r	16bb\LL	.
.	16aa\	.
.	16gg\	.
.	16ff\JJ	.
=13	=13	=13
*tremolo	*	*
!LO:TX:t=P:problem=mixed beam	!	!
8E/L	8.ee\L 8.cc\	.
8c\	.	.
.	16ee\Jk 16cc\	.
8E/	4.ee\ 4.cc\	.
8c\	.	.
8E/	.	.
8c\J	8ff\ 8dd\	.
*Xtremolo	*	*
=14	=14	=14
!LO:TX:t=P:problem=mixed beam	!	!
8C/L	8.aa\L 8.ff\	.
8e\J 8c\ 8G\	.	.
.	16gg\Jk 16ee\	.
4e\ 4c\ 4G\	16eee\LL	.
.	16ddd\	.
.	16ccc\	.
.	16bb\JJ	.
4r	16aa\LL	.
.	16gg\	.
.	16ff#X\	.
!	!LO:TX:t=[segno]	!
!	!LO:TX:t=P:problem=znak segno na kresce taktowej	!
.	16ffn\JJ	.
!!LO:LB:g=original
=15||	=15||	=15||
*>D	*>D	*
*clefG2	*	*
*M3/4	*M3/4	*
!	!LO:TX:t=P:problem=brak znaku otwarcia repetycji	!
8g/L	8gg\L	.
32a/LL	32aa\LL	.
32g/	32gg\	.
32f#X/	32ff#X\	.
32g/JJJ	32gg\JJJ	.
8a/L	8aa\L	.
!	!LO:SIC:v:s=8ff#\	!
8f#/	8ffn\	.
8d/	8dd\	.
8B/J	8b\J	.
=16	=16	=16
*clefF4	*	*
8e\L 8c\	8.cc\L	.
8G\J	.	.
.	16ee\Jk	.
8f\L 8B\	8.dd\L	.
8G\J	.	.
.	16ff\Jk	.
4e\ 4c\	4ee\	.
*clefG2	*	*
=17	=17	=17
!LO:N:vis=32	!	!
8g/L	8gg\L	.
32a/LL	32aa\LL	.
32g/	32gg\	.
32f#X/	32ff#X\	.
32g/JJJ	32gg\JJJ	.
8a/L	8aa\L	.
8f#/	8ff#\	.
8d/	8dd\	.
8B/J	8b\J	.
!LO:CL:ed	!	!
*clefF4	*	*
=18	=18	=18
8e\L 8c\	8.a\L	.
8G\J	.	.
.	16ee\Jk	.
8f\L 8B\	8.dd\L	.
8G\J	.	.
.	16gg\Jk	.
4e\ 4c\	4cc\	.
=19:|!|:	=19:|!|:	=19:|!|:
*>E	*>E	*
16G\LL	8gg\	.
16f\	.	.
16d\	4bb\	.
16f\JJ	.	.
*rep	*	*
16G\LL	.	.
16f\	.	.
16d\	16bb\LL	.
16f\JJ	16aa\JJ	.
*Xrep	*	*
*rep	*	*
16G\LL	16bb\LL	.
16f\	16gg\	.
16d\	16aa\	.
16f\JJ	16bb\JJ	.
*Xrep	*	*
=20	=20	=20
16G\LL	8.aa\L	.
16e\	.	.
16c\	.	.
16e\JJ	16gg\Jk	.
*rep	*	*
16G\LL	16ff#X\LL	.
16e\	16gg\	.
16c\	16aa\	.
16e\JJ	16gg\JJ	.
*Xrep	*	*
*rep	*	*
16G\LL	16ffn\LL	.
16e\	16ee\	.
16c\	16dd\	.
16e\JJ	16cc\JJ	.
*Xrep	*	*
=21	=21	=21
16G\LL	8gg\	.
16f\	.	.
16d\	4bb\	.
16f\JJ	.	.
*rep	*	*
16G\LL	.	.
16f\	.	.
.	8qccc/	.
16d\	16bb\LL	.
16f\JJ	16aa\JJ	.
*Xrep	*	*
*rep	*	*
16G\LL	16bb\LL	.
16f\	16gg\	.
16d\	16aa\	.
16f\JJ	16bb\JJ	.
*Xrep	*	*
=22	=22	=22
16e\LL	16ccc\LL	.
16G\	16bb\	.
16A\	16aa\	.
16G\JJ	16gg\JJ	.
16F/LL	16ff\LL	.
16E/	16ee\	.
16D/	16dd\	.
16C/JJ	16cc\JJ	.
!	!LO:TX:t=P:problem=brak znaku zamknięcia repetycji	!
!	!LO:TX:b:i:t=T.D.C.al Fine.	!
4GG/	4g/	.
==	==	==
*-	*-	*-
!!!system-decoration: {s1,s2}
!!!ENC: Marta Chmielewska
!!!END: 2020-06-17
!!!EED: Andrzej Borzym
!!!EEV: 2022-01-05
!!!YEC: Copyright 2022 Narodowy Instytut Fryderyka Chopina (https://polishscores.org)
!!!YEM: License CC-BY-4.0 (https://creativecommons.org/licenses/by/4.0)
